X:33
T:Parson of Eltham,The. JBi.33
M:6/8
L:1/8
Q:3/8=90
S:James Biggins MS, Leeds, 1779.
R:.Misc.
O:England
A:Yorkshire
Z:vmp.Nick Barber & Chris Partington
K:F
BGB AFA|BGBA2c|def efg|fga gec|!
BGB AFA|BGBA2c|def cfe|f3F3:|!
|:faf afd|ege gec|faf ege|def edc|!
(f/g/a)f afd|(e/f/g)e gec|agf edc|T=B3c3:|

